X:6
T:The Cage
C:James Hill
M:4/4
L:1/8
E:10
K:A
|:A>B|c>Bd>c B>Ac>B|A>+EC++EC+>+EC+ +E2C2+ F>G|A>FB>A c>Ad>c|B>A>G>A B2 e>d|\
c>Bd>c B>Ac>B|A>FB>A G>FE>D|C>EA>E F>ecA|+B2G2+ A2 A2::(3efg|a>Ace a>gb>a|\
g>fa>g f2 (3agf|e>EG>B e>cf<e|d>ca>c B2 A>B|c>Bd>c B>Ac>B|A>FB>A G>FE>D|\
C>EA>E F>ecA|+B2G2+ A2 A2:|**

